X: 1
T: Golden Slippers
R: reel
Z: 1997 by John Chambers <jc:trillian.mit.edu>
M: C|
L: 1/8
K: Gm
GA \
|  "Gm"B2B2 BAGA | B2B2 B2GA | B2B2 c3B | "D7"B2A2 A2^FG |  A2A2 AG^FG | A2A2 A2^FG | A2c2 B2A2 |1 "Gm"A2G4 \
                                                                                               :|2 "Gm"A2G6 :|
|: "Gm"D6 G2 | B2A2 G2F2 | "Cm"E6 G2 | c2B2 A2G2 | "D7"^F3D F2G2 |1 "D7"A2A2 A2D2 | "Gm"G2D2 G2A2 | B8 \
                                                                 :|2 "D7"A2A2 A2c2 | B3c B2A2 | "Gm"G6 |]
